assets/images/afrikons/bookmark-outline.svg

<svg viewBox="0 0 34.94 50" xmlns="http://www.w3.org/2000/svg"><path d="m28.33 0h-21.72c-3.61 0-6.61 3.39-6.61 7.56v40.63a1.86 1.86 0 0 0 .83 1.57 1.57 1.57 0 0 0 .83.24 1.51 1.51 0 0 0 .68-.16l15.13-7.31 15.13 7.31a1.54 1.54 0 0 0 1.5-.08 1.85 1.85 0 0 0 .84-1.57v-40.63c0-4.17-2.94-7.56-6.61-7.56zm5.14 48.19a.41.41 0 0 1 -.14.33.12.12 0 0 1 -.1 0l-15.76-7.61-15.86 7.61a.39.39 0 0 1 -.15-.33v-40.63c0-3.37 2.31-6.1 5.15-6.1h21.72c2.83 0 5.14 2.73 5.14 6.1z"/></svg>

<svg xmlns="http://www.w3.org/2000/svg" viewBox="0 0 34.94 50"><title>bookmark-outline</title><g id="Layer_2" data-name="Layer 2"><g id="Layer_1-2" data-name="Layer 1"><path d="M28.33,0H6.61C3,0,0,3.39,0,7.56V48.19a1.86,1.86,0,0,0,.83,1.57,1.57,1.57,0,0,0,.83.24,1.51,1.51,0,0,0,.68-.16l15.13-7.31L32.6,49.84a1.54,1.54,0,0,0,1.5-.08,1.85,1.85,0,0,0,.84-1.57V7.56C34.94,3.39,32,0,28.33,0Zm5.14,48.19a.41.41,0,0,1-.14.33.12.12,0,0,1-.1,0L17.47,40.91,1.61,48.52a.39.39,0,0,1-.15-.33V7.56c0-3.37,2.31-6.1,5.15-6.1H28.33c2.83,0,5.14,2.73,5.14,6.1Z"/></g></g></svg>
